!!! OTL: Berkowitz7
!!! Chapter: 1
!!! Section: I
!!! Page: 6
!!! Mode: 
!!! Encoder: DJB
**kern
*staff1
*I"Piano
=1-
*clefG2
*k[f#c#]
*D:
*M4/4
4d/
8d/L
8e/J
4f#/
4g/
=2
2a/
2b\
=3
4a/
8a/L
8g/J
4f#/
4e/
=4
1f#
=5
4e/
8d/L
8e/J
4f#/
4g/
=6
2a/
2b\
=7
4a/
8a/L
8g/J
4f#/
4e/
=8
1d
==
*-
